X:1
T:Yorba Linda, 76.76 D
T:Yorba Linda, 76.76 D
T:Rand L. Newton, 1899
T:Public Domain Courtesy of the Cyber Hymnal™
C:Rand L. Newton, 1899
Z:Public Domain
Z:Courtesy of the Cyber Hymnal™
%%score ( 1 2 ) ( 3 4 )
L:1/8
Q:1/4=107
M:4/4
K:C
V:1 treble 
V:2 treble 
V:3 bass 
V:4 bass 
V:1
 [EG]2 | ([EG][DF]) ([CE][DF]) [EG]2 [Ec]2 | [Ge]4 [Ec]2 [EG]2 | [FA]2 [Fd]2 ([Ec][DB]) (AB) | %4
 [Ec]6 [EG]2 | ([EG][DF]) ([CE][DF]) [EG]2 [Ec]2 | [Ge]4 [Ec]2 [EG]2 | [FA]2 [Fd]2 [Ec]2 [FB]2 | %8
 [Ec]6 [Ac]2 | ([Bd][Ac]) ([GB][Ac]) [Bd]2 G2 | [Ge]4 [Ec]2 [GB]2 | [FA]2 [Fd]2 [^Fd]2 [Fc]2 | %12
 [GB]6 [FA]2 | ([EG][DF]) ([CE][DF]) [EG]2 [Ec]2 | [Ge]4 [Ec]2 [EG]2 | [FA]2 [Fd]2 [Ec]2 [FB]2 | %16
 [Ec]6 |] %17
V:2
 x2 | x8 | x8 | x6 F2 | x8 | x8 | x8 | x8 | x8 | x6 G2 | x8 | x8 | x8 | x8 | x8 | x8 | x6 |] %17
V:3
 [C,C]2 | [C,C]2 [C,G,]2 [C,C]2 [C,G,]2 | [C,C]4 [C,G,]2 [C,C]2 | [F,C]2 [F,A,]2 G,2 G,2 | %4
 [C,G,]6 [C,C]2 | [C,C]2 [C,G,]2 [C,C]2 [C,G,]2 | [C,C]4 [C,G,]2 [C,C]2 | %7
 [F,C]2 [F,A,]2 G,2 [G,,G,]2 | [C,G,]6 G,2 | (B,C) [G,D]2 [G,B,]2 [G,B,]2 | [C,C]4 [C,G,]2 [E,C]2 | %11
 [F,C]2 [F,A,]2 [D,A,]2 [D,D]2 | [G,D]6 [G,B,]2 | [C,C]2 [C,G,]2 [C,C]2 [C,G,]2 | %14
 [C,C]4 [C,G,]2 [C,C]2 | [F,C]2 [F,A,]2 G,2 [G,,G,]2 | [C,G,]6 |] %17
V:4
 x2 | x8 | x8 | x4 G,2 G,2 | x8 | x8 | x8 | x4 G,2 x2 | x6 G,2 | G,2 x6 | x8 | x8 | x8 | x8 | x8 | %15
 x4 G,2 x2 | x6 |] %17

